X: 43256
T: Woman Of The House, The
R: reel
M: 4/4
K: Gmajor
|:DBBA B3A|GB B2 eBdB|(3ABA GB A2(3Bcd|eB B2 eBdB|
DBBA B3A|GB B2 (3efe dB|GABG (3ABA GA|(3BAG AG EG G2:|
|:f3d eB B2|eBgB eB B2|f3d ed (3Bcd|eaag a3g|
f3d eB B2|eBgB eBBA|GABG (3ABA GA|(3BAG AG EG G2:|

